X:316
T:The temperance reel
T:The teetotaller's reel
R:Reel
O:Ireland
S:New England Fiddler's Repertoire
B:New England Fiddler's Repertoire
Z:Transcription, rearrangement, chords:Mike Long
M:C|
L:1/8
K:G
"G"G2GF GABc|dBge dBAc|"Em"BEED EFGA|"D"BGAF GFED|\
"G"DGGF GABc|
dBge dBAc|"Em"BEED EFGA|"D"BGAF "G"G4:|\
|:"Em"Beed e2ef|geaf gfed|
"D"Bdd^c d2de|fdaf gfed|\
"Em"Beed e2ef|geaf gfed|BEED EFGA|"D"BGAF "G"G4:|
